src/assets/images/pricing_widget.svg

<svg height="100" viewBox="0 0 150 100" width="150" xmlns="http://www.w3.org/2000/svg"><g fill="none" fill-rule="evenodd"><g transform="translate(27 21)"><g stroke="#ff6b6b"><path d="m.8.8h26.4v56.4h-26.4z" stroke-width="1.6"/><path d="m5.34615385 15h17.30769235" stroke-linecap="square"/><path d="m7.35 8h13.3" stroke-linecap="square" stroke-width="4"/><path d="m7.35 20h12.9547289" stroke-linecap="square"/><path d="m6.34090909 25h14.65909091" stroke-linecap="square"/><path d="m8.34210526 29h12.65789474" stroke-linecap="square"/><path d="m5.34615385 34h17.65384615" stroke-linecap="square"/></g><path d="m7.08383234 45.3379694h2.43113772v-.4172462c0-.2781655.02095787-.5030126.06287425-.674548s.09780404-.303662.16766467-.3963838c.06986063-.0927219.14670617-.1553082.23053892-.1877608.0838328-.0324526.1723216-.0486787.2654691-.0486787.2049245 0 .3679302.0788124.4890219.2364395.1210918.1576271.1816367.4450605.1816367.8623087 0 .3708874-.053559.6699108-.1606786.8970793s-.2864259.4659237-.5379241.7162726l-1.73253498 1.752434c-.56819978.5841475-.95708478 1.1845124-1.16666666 1.8011126-.20958189.6166002-.31437126 1.2725974-.31437126 1.9680111h6.510978v-1.9471488h-3.4091816c.0465738-.1483549.1373912-.2920716.2724551-.4311544.1350639-.1390827.2584825-.2642553.3702595-.3755215l1.5369261-1.488178c.37259-.3708874.6706576-.7834934.8942116-1.2378304s.3353293-1.0152957.3353293-1.6828929c0-.3708873-.0442444-.718589-.1327345-1.0431154s-.2514958-.6096418-.4890219-.8553547c-.2375262-.2457128-.5612089-.4381078-.9710579-.5771905-.409849-.1390828-.9407819-.2086231-1.5928144-.2086231-.67997679 0-1.22953882.0788124-1.64870259.2364395-.41916378.1576271-.74517515.3824742-.97804392.674548-.23286876.2920738-.39121714.6444115-.4750499 1.0570236-.08383275.4126122-.1304058.8692604-.13972055 1.3699583zm9.78043916 3.310153c0 .6954138.0605449 1.16597.1816367 1.4116829.1210917.2457129.3166986.3685674.5868263.3685674.2701278 0 .4657346-.1228545.5868264-.3685674.1210917-.2457129.1816367-.7162691.1816367-1.4116829v-3.2545202c0-.6954137-.060545-1.16597-.1816367-1.4116829-.1210918-.2457128-.3166986-.3685674-.5868264-.3685674-.2701277 0-.4657346.1228546-.5868263.3685674-.1210918.2457129-.1816367.7162692-.1816367 1.4116829zm-2.5988024-1.6272601c0-.9921236.0675309-1.8126996.2025948-2.4617524.1350639-.6490529.3399853-1.1636513.6147704-1.5438109.2747852-.3801595.6240831-.6444128 1.0479042-.7927677.4238212-.1483549.9244815-.2225313 1.501996-.2225313.5775146 0 1.0781749.0741764 1.501996.2225313.4238212.1483549.7731191.4126082 1.0479042.7927677.2747852.3801596.4797066.894758.6147705 1.5438109.1350639.6490528.2025948 1.4696288.2025948 2.4617524 0 1.0013958-.0675309 1.8242898-.2025948 2.4687065-.1350639.6444168-.3399853 1.1543793-.6147705 1.5299027-.2747851.3755234-.624083.6328227-1.0479042.7719054-.4238211.1390828-.9244814.2086231-1.501996.2086231-.5775145 0-1.0781748-.0695403-1.501996-.2086231-.4238211-.1390827-.773119-.396382-1.0479042-.7719054-.2747851-.3755234-.4797065-.8854859-.6147704-1.5299027-.1350639-.6444167-.2025948-1.4673107-.2025948-2.4687065z" fill="#ff6b6b"/></g><g transform="translate(59 17)"><g stroke="#ff6b6b"><path d="m.8.8h30.4v64.058757h-30.4z" stroke-width="1.6"/><path d="m6 17.5389831h20" stroke-linecap="square"/><path d="m8.4 9.4440678h15.2" stroke-linecap="square" stroke-width="4"/><path d="m8.4 22.9355932h14.8054044" stroke-linecap="square"/><path d="m7.6 28.3322034h17.2" stroke-linecap="square"/><path d="m9.2 33.7288136h14.8" stroke-linecap="square"/><path d="m6 39.1254237h20.4" stroke-linecap="square"/></g><path d="m8.512 50.7129492h2.688c0-.5973364.0613327-1.0079989.184-1.232.1226673-.2240012.3279986-.336.616-.336.2560013 0 .4453327.0826658.568.248.1226673.1653341.184.4879976.184.968 0 .3306683-.0266664.5999989-.08.808-.0533336.208001-.1333328.370666-.24.488-.1066672.1173339-.2399992.1973331-.4.24-.1600008.0426668-.3519989.064-.576.064h-.432v1.856h.752c.3733352 0 .6479991.095999.824.288.1760009.1920009.264.5653305.264 1.12 0 .3520017-.0106666.6426655-.032.872-.0213334.2293344-.061333.410666-.12.544s-.1413328.2239997-.248.272c-.1066672.0480002-.2453325.072-.416.072-.3200016 0-.5439994-.1386653-.672-.416-.0640003-.1493341-.1146665-.3306656-.152-.544s-.056-.4799984-.056-.8h-2.784c0 .68267.07466592 1.2559976.224 1.72.14933408.4640023.37866512.8346652.688 1.112.30933488.2773347.70133096.4693328 1.176.576.474669.1066672 1.0319968.16 1.672.16 1.2266728 0 2.1493302-.2799972 2.768-.84s.928-1.4799936.928-2.76c0-.6186698-.133332-1.1546644-.4-1.608s-.7306634-.7439994-1.392-.872v-.032c.2986682-.0640004.5493323-.1759992.752-.336s.3653327-.343999.488-.552c.1226673-.2080011.2106664-.4319988.264-.672s.08-.4719989.08-.696c0-.5013359-.0559994-.9466648-.168-1.336-.1120006-.3893353-.3039986-.717332-.576-.984s-.637331-.4693327-1.096-.608c-.458669-.1386674-1.0346632-.208-1.728-.208-1.1626725 0-2.0373304.2773305-2.624.832-.5866696.5440027-.89599984 1.407994-.928 2.592zm11.168 4.224c0 .800004.0693326 1.3413319.208 1.624.1386674.282668.3626651.424.672.424s.5333326-.141332.672-.424c.1386674-.2826681.208-.823996.208-1.624v-3.744c0-.800004-.0693326-1.341332-.208-1.624-.1386674-.2826681-.3626651-.424-.672-.424s-.5333326.1413319-.672.424c-.1386674.282668-.208.823996-.208 1.624zm-2.976-1.872c0-1.1413391.0773326-2.0853296.232-2.832s.3893318-1.3386645.704-1.776c.3146682-.4373356.7146642-.7413325 1.2-.912.4853358-.1706676 1.0586634-.256 1.72-.256s1.2346642.0853324 1.72.256c.4853358.1706675.8853318.4746644 1.2.912.3146682.4373355.5493326 1.0293296.704 1.776s.232 1.6906609.232 2.832c0 1.1520057-.0773326 2.0986629-.232 2.84-.1546674.741337-.3893318 1.3279978-.704 1.76-.3146682.4320021-.7146642.7279992-1.2.888s-1.0586634.24-1.72.24-1.2346642-.0799992-1.72-.24-.8853318-.4559979-1.2-.888c-.3146682-.4320022-.5493326-1.018663-.704-1.76-.1546674-.7413371-.232-1.6879943-.232-2.84z" fill="#ff6b6b"/></g><g transform="translate(95 21)"><g stroke="#ff6b6b"><path d="m.8.8h26.4v56.4h-26.4z" stroke-width="1.6"/><path d="m5.34615385 15h17.30769235" stroke-linecap="square"/><path d="m7.35 8h13.3" stroke-linecap="square" stroke-width="4"/><path d="m7.35 20h12.9547289" stroke-linecap="square"/><path d="m6.34090909 25h14.65909091" stroke-linecap="square"/><path d="m8.34210526 29h12.65789474" stroke-linecap="square"/><path d="m5.34615385 34h17.65384615" stroke-linecap="square"/></g><path d="m7 48.0639777 3.120398-5.8692628h2.8139304v5.9527121h.8636816v1.8636996h-.8636816v1.8358831h-2.4238806v-1.8358831h-3.5104478zm3.5940299.0834493v-3.2823366h-.0278607l-1.61592044 3.2823366zm6.282587.5006954c0 .6954138.0603643 1.16597.1810945 1.4116829.1207303.2457129.3157533.3685674.5850747.3685674s.4643443-.1228545.5850746-.3685674.1810945-.7162691.1810945-1.4116829v-3.2545202c0-.6954137-.0603642-1.16597-.1810945-1.4116829-.1207303-.2457128-.3157532-.3685674-.5850746-.3685674s-.4643444.1228546-.5850747.3685674c-.1207302.2457129-.1810945.7162692-.1810945 1.4116829zm-2.5910448-1.6272601c0-.9921236.0673294-1.8126996.2019901-2.4617524.1346607-.6490529.3389704-1.1636513.6129353-1.5438109.2739649-.3801595.6222201-.6444128 1.0447761-.7927677s.9217219-.2225313 1.4975125-.2225313 1.0749564.0741764 1.4975124.2225313.7708112.4126082 1.0447761.7927677c.2739649.3801596.4782746.894758.6129354 1.5438109.1346607.6490528.20199 1.4696288.20199 2.4617524 0 1.0013958-.0673293 1.8242898-.20199 2.4687065-.1346608.6444168-.3389705 1.1543793-.6129354 1.5299027s-.6222201.6328227-1.0447761.7719054c-.422556.1390828-.9217218.2086231-1.4975124.2086231s-1.0749565-.0695403-1.4975125-.2086231c-.422556-.1390827-.7708112-.396382-1.0447761-.7719054s-.4782746-.8854859-.6129353-1.5299027c-.1346607-.6444167-.2019901-1.4673107-.2019901-2.4687065z" fill="#ff6b6b"/></g></g></svg>

<?xml version="1.0" encoding="UTF-8"?>
<svg width="150px" height="100px" viewBox="0 0 150 100" version="1.1" xmlns="http://www.w3.org/2000/svg" xmlns:xlink="http://www.w3.org/1999/xlink">
    <!-- Generator: Sketch 47.1 (45422) - http://www.bohemiancoding.com/sketch -->
    <title>pricing</title>
    <desc>Created with Sketch.</desc>
    <defs></defs>
    <g id="Page-1" stroke="none" stroke-width="1" fill="none" fill-rule="evenodd">
        <g id="pricing">
            <g id="Group-2" transform="translate(27.000000, 17.000000)">
                <g id="Group" transform="translate(0.000000, 4.000000)">
                    <rect id="Rectangle" stroke="#FF6B6B" stroke-width="1.6" x="0.8" y="0.8" width="26.4" height="56.4"></rect>
                    <path d="M5.34615385,15 L22.6538462,15" id="Line" stroke="#FF6B6B" stroke-linecap="square"></path>
                    <path d="M7.35,8 L20.65,8" id="Line" stroke="#FF6B6B" stroke-width="4" stroke-linecap="square"></path>
                    <path d="M7.35,20 L20.3047289,20" id="Line" stroke="#FF6B6B" stroke-linecap="square"></path>
                    <path d="M6.34090909,25 L21,25" id="Line" stroke="#FF6B6B" stroke-linecap="square"></path>
                    <path d="M8.34210526,29 L21,29" id="Line" stroke="#FF6B6B" stroke-linecap="square"></path>
                    <path d="M5.34615385,34 L23,34" id="Line" stroke="#FF6B6B" stroke-linecap="square"></path>
                    <path d="M7.08383234,45.3379694 L9.51497006,45.3379694 L9.51497006,44.9207232 C9.51497006,44.6425577 9.53592793,44.4177106 9.57784431,44.2461752 C9.61976069,44.0746398 9.67564835,43.9425132 9.74550898,43.8497914 C9.81536961,43.7570695 9.89221515,43.6944832 9.9760479,43.6620306 C10.0598807,43.629578 10.1483695,43.6133519 10.241517,43.6133519 C10.4464415,43.6133519 10.6094472,43.6921643 10.7305389,43.8497914 C10.8516307,44.0074185 10.9121756,44.2948519 10.9121756,44.7121001 C10.9121756,45.0829875 10.8586166,45.3820109 10.751497,45.6091794 C10.6443774,45.8363479 10.4650711,46.0751031 10.2135729,46.325452 L8.48103792,48.077886 C7.91283814,48.6620335 7.52395314,49.2623984 7.31437126,49.8789986 C7.10478937,50.4955988 7,51.151596 7,51.8470097 L13.510978,51.8470097 L13.510978,49.8998609 L10.1017964,49.8998609 C10.1483702,49.751506 10.2391876,49.6077893 10.3742515,49.4687065 C10.5093154,49.3296238 10.632734,49.2044512 10.744511,49.093185 L12.2814371,47.605007 C12.6540271,47.2341196 12.9520947,46.8215136 13.1756487,46.3671766 C13.3992027,45.9128396 13.510978,45.3518809 13.510978,44.6842837 C13.510978,44.3133964 13.4667336,43.9656947 13.3782435,43.6411683 C13.2897534,43.3166419 13.1267477,43.0315265 12.8892216,42.7858136 C12.6516954,42.5401008 12.3280127,42.3477058 11.9181637,42.2086231 C11.5083147,42.0695403 10.9773818,42 10.3253493,42 C9.64537251,42 9.09581048,42.0788124 8.67664671,42.2364395 C8.25748293,42.3940666 7.93147156,42.6189137 7.69860279,42.9109875 C7.46573403,43.2030613 7.30738565,43.555399 7.22355289,43.9680111 C7.13972014,44.3806233 7.09314709,44.8372715 7.08383234,45.3379694 Z M16.8642715,48.6481224 C16.8642715,49.3435362 16.9248164,49.8140924 17.0459082,50.0598053 C17.1669999,50.3055182 17.3626068,50.4283727 17.6327345,50.4283727 C17.9028623,50.4283727 18.0984691,50.3055182 18.2195609,50.0598053 C18.3406526,49.8140924 18.4011976,49.3435362 18.4011976,48.6481224 L18.4011976,45.3936022 C18.4011976,44.6981885 18.3406526,44.2276322 18.2195609,43.9819193 C18.0984691,43.7362065 17.9028623,43.6133519 17.6327345,43.6133519 C17.3626068,43.6133519 17.1669999,43.7362065 17.0459082,43.9819193 C16.9248164,44.2276322 16.8642715,44.6981885 16.8642715,45.3936022 L16.8642715,48.6481224 Z M14.2654691,47.0208623 C14.2654691,46.0287387 14.333,45.2081627 14.4680639,44.5591099 C14.6031278,43.910057 14.8080492,43.3954586 15.0828343,43.015299 C15.3576195,42.6351395 15.7069174,42.3708862 16.1307385,42.2225313 C16.5545597,42.0741764 17.05522,42 17.6327345,42 C18.2102491,42 18.7109094,42.0741764 19.1347305,42.2225313 C19.5585517,42.3708862 19.9078496,42.6351395 20.1826347,43.015299 C20.4574199,43.3954586 20.6623413,43.910057 20.7974052,44.5591099 C20.9324691,45.2081627 21,46.0287387 21,47.0208623 C21,48.0222581 20.9324691,48.8451521 20.7974052,49.4895688 C20.6623413,50.1339856 20.4574199,50.6439481 20.1826347,51.0194715 C19.9078496,51.3949949 19.5585517,51.6522942 19.1347305,51.7913769 C18.7109094,51.9304597 18.2102491,52 17.6327345,52 C17.05522,52 16.5545597,51.9304597 16.1307385,51.7913769 C15.7069174,51.6522942 15.3576195,51.3949949 15.0828343,51.0194715 C14.8080492,50.6439481 14.6031278,50.1339856 14.4680639,49.4895688 C14.333,48.8451521 14.2654691,48.0222581 14.2654691,47.0208623 Z" id="20" fill="#FF6B6B"></path>
                </g>
                <g id="Group" transform="translate(32.000000, 0.000000)">
                    <rect id="Rectangle" stroke="#FF6B6B" stroke-width="1.6" x="0.8" y="0.8" width="30.4" height="64.0587571"></rect>
                    <path d="M6,17.5389831 L26,17.5389831" id="Line" stroke="#FF6B6B" stroke-linecap="square"></path>
                    <path d="M8.4,9.4440678 L23.6,9.4440678" id="Line" stroke="#FF6B6B" stroke-width="4" stroke-linecap="square"></path>
                    <path d="M8.4,22.9355932 L23.2054044,22.9355932" id="Line" stroke="#FF6B6B" stroke-linecap="square"></path>
                    <path d="M7.6,28.3322034 L24.8,28.3322034" id="Line" stroke="#FF6B6B" stroke-linecap="square"></path>
                    <path d="M9.2,33.7288136 L24,33.7288136" id="Line" stroke="#FF6B6B" stroke-linecap="square"></path>
                    <path d="M6,39.1254237 L26.4,39.1254237" id="Line" stroke="#FF6B6B" stroke-linecap="square"></path>
                    <path d="M8.512,50.7129492 L11.2,50.7129492 C11.2,50.1156128 11.2613327,49.7049503 11.384,49.4809492 C11.5066673,49.256948 11.7119986,49.1449492 12,49.1449492 C12.2560013,49.1449492 12.4453327,49.227615 12.568,49.3929492 C12.6906673,49.5582833 12.752,49.8809468 12.752,50.3609492 C12.752,50.6916175 12.7253336,50.9609481 12.672,51.1689492 C12.6186664,51.3769502 12.5386672,51.5396152 12.432,51.6569492 C12.3253328,51.7742831 12.1920008,51.8542823 12.032,51.8969492 C11.8719992,51.939616 11.6800011,51.9609492 11.456,51.9609492 L11.024,51.9609492 L11.024,53.8169492 L11.776,53.8169492 C12.1493352,53.8169492 12.4239991,53.9129482 12.6,54.1049492 C12.7760009,54.2969501 12.864,54.6702797 12.864,55.2249492 C12.864,55.5769509 12.8533334,55.8676147 12.832,56.0969492 C12.8106666,56.3262836 12.770667,56.5076152 12.712,56.6409492 C12.653333,56.7742832 12.5706672,56.8649489 12.464,56.9129492 C12.3573328,56.9609494 12.2186675,56.9849492 12.048,56.9849492 C11.7279984,56.9849492 11.5040006,56.8462839 11.376,56.5689492 C11.3119997,56.4196151 11.2613335,56.2382836 11.224,56.0249492 C11.1866665,55.8116148 11.168,55.5449508 11.168,55.2249492 L8.384,55.2249492 C8.384,55.9076192 8.45866592,56.4809468 8.608,56.9449492 C8.75733408,57.4089515 8.98666512,57.7796144 9.296,58.0569492 C9.60533488,58.3342839 9.99733096,58.526282 10.472,58.6329492 C10.946669,58.7396164 11.5039968,58.7929492 12.144,58.7929492 C13.3706728,58.7929492 14.2933302,58.512952 14.912,57.9529492 C15.5306698,57.3929464 15.84,56.4729556 15.84,55.1929492 C15.84,54.5742794 15.706668,54.0382848 15.44,53.5849492 C15.173332,53.1316136 14.7093366,52.8409498 14.048,52.7129492 L14.048,52.6809492 C14.3466682,52.6169488 14.5973323,52.50495 14.8,52.3449492 C15.0026677,52.1849484 15.1653327,52.0009502 15.288,51.7929492 C15.4106673,51.5849481 15.4986664,51.3609504 15.552,51.1209492 C15.6053336,50.880948 15.632,50.6489503 15.632,50.4249492 C15.632,49.9236133 15.5760006,49.4782844 15.464,49.0889492 C15.3519994,48.6996139 15.1600014,48.3716172 14.888,48.1049492 C14.6159986,47.8382812 14.250669,47.6356165 13.792,47.4969492 C13.333331,47.3582818 12.7573368,47.2889492 12.064,47.2889492 C10.9013275,47.2889492 10.0266696,47.5662797 9.44,48.1209492 C8.8533304,48.6649519 8.54400016,49.5289432 8.512,50.7129492 Z M19.68,54.9369492 C19.68,55.7369532 19.7493326,56.2782811 19.888,56.5609492 C20.0266674,56.8436172 20.2506651,56.9849492 20.56,56.9849492 C20.8693349,56.9849492 21.0933326,56.8436172 21.232,56.5609492 C21.3706674,56.2782811 21.44,55.7369532 21.44,54.9369492 L21.44,51.1929492 C21.44,50.3929452 21.3706674,49.8516172 21.232,49.5689492 C21.0933326,49.2862811 20.8693349,49.1449492 20.56,49.1449492 C20.2506651,49.1449492 20.0266674,49.2862811 19.888,49.5689492 C19.7493326,49.8516172 19.68,50.3929452 19.68,51.1929492 L19.68,54.9369492 Z M16.704,53.0649492 C16.704,51.9236101 16.7813326,50.9796196 16.936,50.2329492 C17.0906674,49.4862788 17.3253318,48.8942847 17.64,48.4569492 C17.9546682,48.0196136 18.3546642,47.7156167 18.84,47.5449492 C19.3253358,47.3742816 19.8986634,47.2889492 20.56,47.2889492 C21.2213366,47.2889492 21.7946642,47.3742816 22.28,47.5449492 C22.7653358,47.7156167 23.1653318,48.0196136 23.48,48.4569492 C23.7946682,48.8942847 24.0293326,49.4862788 24.184,50.2329492 C24.3386674,50.9796196 24.416,51.9236101 24.416,53.0649492 C24.416,54.2169549 24.3386674,55.1636121 24.184,55.9049492 C24.0293326,56.6462862 23.7946682,57.232947 23.48,57.6649492 C23.1653318,58.0969513 22.7653358,58.3929484 22.28,58.5529492 C21.7946642,58.71295 21.2213366,58.7929492 20.56,58.7929492 C19.8986634,58.7929492 19.3253358,58.71295 18.84,58.5529492 C18.3546642,58.3929484 17.9546682,58.0969513 17.64,57.6649492 C17.3253318,57.232947 17.0906674,56.6462862 16.936,55.9049492 C16.7813326,55.1636121 16.704,54.2169549 16.704,53.0649492 Z" id="30" fill="#FF6B6B"></path>
                </g>
                <g id="Group" transform="translate(68.000000, 4.000000)">
                    <rect id="Rectangle" stroke="#FF6B6B" stroke-width="1.6" x="0.8" y="0.8" width="26.4" height="56.4"></rect>
                    <path d="M5.34615385,15 L22.6538462,15" id="Line" stroke="#FF6B6B" stroke-linecap="square"></path>
                    <path d="M7.35,8 L20.65,8" id="Line" stroke="#FF6B6B" stroke-width="4" stroke-linecap="square"></path>
                    <path d="M7.35,20 L20.3047289,20" id="Line" stroke="#FF6B6B" stroke-linecap="square"></path>
                    <path d="M6.34090909,25 L21,25" id="Line" stroke="#FF6B6B" stroke-linecap="square"></path>
                    <path d="M8.34210526,29 L21,29" id="Line" stroke="#FF6B6B" stroke-linecap="square"></path>
                    <path d="M5.34615385,34 L23,34" id="Line" stroke="#FF6B6B" stroke-linecap="square"></path>
                    <path d="M7,48.0639777 L10.120398,42.1947149 L12.9343284,42.1947149 L12.9343284,48.147427 L13.79801,48.147427 L13.79801,50.0111266 L12.9343284,50.0111266 L12.9343284,51.8470097 L10.5104478,51.8470097 L10.5104478,50.0111266 L7,50.0111266 L7,48.0639777 Z M10.5940299,48.147427 L10.5940299,44.8650904 L10.5661692,44.8650904 L8.95024876,48.147427 L10.5940299,48.147427 Z M16.8766169,48.6481224 C16.8766169,49.3435362 16.9369812,49.8140924 17.0577114,50.0598053 C17.1784417,50.3055182 17.3734647,50.4283727 17.6427861,50.4283727 C17.9121075,50.4283727 18.1071304,50.3055182 18.2278607,50.0598053 C18.348591,49.8140924 18.4089552,49.3435362 18.4089552,48.6481224 L18.4089552,45.3936022 C18.4089552,44.6981885 18.348591,44.2276322 18.2278607,43.9819193 C18.1071304,43.7362065 17.9121075,43.6133519 17.6427861,43.6133519 C17.3734647,43.6133519 17.1784417,43.7362065 17.0577114,43.9819193 C16.9369812,44.2276322 16.8766169,44.6981885 16.8766169,45.3936022 L16.8766169,48.6481224 Z M14.2855721,47.0208623 C14.2855721,46.0287387 14.3529015,45.2081627 14.4875622,44.5591099 C14.6222229,43.910057 14.8265326,43.3954586 15.1004975,43.015299 C15.3744624,42.6351395 15.7227176,42.3708862 16.1452736,42.2225313 C16.5678296,42.0741764 17.0669955,42 17.6427861,42 C18.2185767,42 18.7177425,42.0741764 19.1402985,42.2225313 C19.5628545,42.3708862 19.9111097,42.6351395 20.1850746,43.015299 C20.4590395,43.3954586 20.6633492,43.910057 20.79801,44.5591099 C20.9326707,45.2081627 21,46.0287387 21,47.0208623 C21,48.0222581 20.9326707,48.8451521 20.79801,49.4895688 C20.6633492,50.1339856 20.4590395,50.6439481 20.1850746,51.0194715 C19.9111097,51.3949949 19.5628545,51.6522942 19.1402985,51.7913769 C18.7177425,51.9304597 18.2185767,52 17.6427861,52 C17.0669955,52 16.5678296,51.9304597 16.1452736,51.7913769 C15.7227176,51.6522942 15.3744624,51.3949949 15.1004975,51.0194715 C14.8265326,50.6439481 14.6222229,50.1339856 14.4875622,49.4895688 C14.3529015,48.8451521 14.2855721,48.0222581 14.2855721,47.0208623 Z" id="40" fill="#FF6B6B"></path>
                </g>
            </g>
        </g>
    </g>
</svg>
